X:602
T:Island Spinning Song 
C:Joe Buchanan's Scottish Tome - Page 172.1
I:172 1
R:Reel
Z:Carl Allison
L:1/8
M:4/4
K:D
"Bm"BBBB d4 | "A" c2 BB c4 | "C#m" e2 ee "F#m"A2 A2 | "C#m"e2 ee "F#m"A2 A2 |
"Bm"BBBB | "A"c2 BB c2 (de) | "Bm" f2 d2 "A"e2 c2 | "Bm"B4 B4  |
"Bm"f3 e B2 de | "Bm"f2 e2 B4 | "A"e3 c A2 cd |"A" e2 c2 A4 |
"Bm"f3 e B2 de | "Bm"f2 e2 B2 (de) | "Bm"f2 d2 "A"e2 c2 | "Bm"B4 B4 :|

